X: 14027
T: FIO'S REEL
%: (F\=IO)
C: Bob McQuillen 4 Nov.'09
B: Bob's Note Book 14 #27
%R: reel
%D:2009
Z: 2020 John Chambers <jc:trillian.mit.edu>
M: C
L: 1/8
K: D
dB \
| AFED F2AB | AFED B4   | A2BA FAdB | ABde fedB |
| AFED FAdB | AFED B2dB | AFAd BAdf | edef d2  :|
|: de \
| f2af efde | fded B2AB | dBAB ABdA | BdAF EFDE |
| F2AF BAFE | FDFA B2AB | dBAF ABdf | afef d2  :|
%%begintext align
%% The summer of 2009 sent me
%% some super students at the Maine Fiddle Camp piano class,
%% and one of them was Fiona Crey Hall, from Camden. It
%% was so much fun working with you, Fio, and you did so
%% well, that I thought you earned a tune. So here it is,
%% and I hope you like it. Much love to you, from Bob--
%%endtext

%%sep 1 1 500

%%sep 1 1 500

